X: 3600
T: Bill Flanagan's Birthday
R: hornpipe
M: 4/4
K: Gmajor
B,C|:DGGA BcAB|GFDE =FDCF|DGGA B2cB|A/B/A GF D2Bc|
dgdc BGcA|GFDE =FGDC|D/A/B GA FDCA,|1 DGGF G2B,C:|2 DGGF G2Bc||
|:dgdc BGcA|dggf g2de|=fgdf cdAc|BGcA B,CA,C|
DEFD G2Bc|dgdB c2dc|ABGA FDCA,|DGGF G2Bc:|
|:dgdc BGcA|GDB,D G,DB,D|GFGA Bdge|=fdcA d2Bc|
dgbg dBG=F|ECEG c2dc|ABGA FDCA,|1 DGGF G2Bc:|2 DGGF G4||

